icons/ui_zoom_out.svg

<svg width="48" height="48" viewBox="0 0 48 48" fill="none" xmlns="http://www.w3.org/2000/svg">
<path d="M32.9999 22H20.9999V20H32.9999V22Z" fill="black"/>
<path fill-rule="evenodd" clip-rule="evenodd" d="M41.9999 21C41.9999 29.2843 35.2842 36 26.9999 36C23.2177 36 19.7624 34.6001 17.1239 32.2903L15.2956 34.1185L15.3 36.9426L8.82833 43.4143L4.58569 39.1716L11.1095 32.6479L13.8168 32.7689L15.7096 30.876C13.3998 28.2375 11.9999 24.7823 11.9999 21C11.9999 12.7157 18.7156 6 26.9999 6C35.2842 6 41.9999 12.7157 41.9999 21ZM39.9999 21C39.9999 28.1797 34.1796 34 26.9999 34C19.8202 34 13.9999 28.1797 13.9999 21C13.9999 13.8203 19.8202 8 26.9999 8C34.1796 8 39.9999 13.8203 39.9999 21ZM8.82833 40.5858L7.41412 39.1716L11.9005 34.6852L13.2966 34.7477L13.2987 36.1155L8.82833 40.5858Z" fill="black"/>
</svg>

<svg
  xmlns="http://www.w3.org/2000/svg"
  width="24"
  height="24"
  viewBox="0 0 24 24"
  fill="none"
  stroke="currentColor"
  stroke-width="2"
  stroke-linecap="round"
  stroke-linejoin="round"
>
  <path d="M33 22H21v-2h12z" />
  <path
    fill-rule="evenodd"
    d="M42 21c0 8.284-6.716 15-15 15-3.782 0-7.238-1.4-9.876-3.71l-1.828 1.828.004 2.825-6.472 6.471-4.242-4.242 6.524-6.524 2.707.12 1.893-1.892A14.94 14.94 0 0 1 12 21c0-8.284 6.716-15 15-15s15 6.716 15 15m-2 0c0 7.18-5.82 13-13 13s-13-5.82-13-13S19.82 8 27 8s13 5.82 13 13M8.828 40.586l-1.414-1.414 4.486-4.487 1.397.063.002 1.367z"
    clip-rule="evenodd"
  />
</svg>
